tela-icon-theme/src/scalable/devices/cpu.svg

<svg xmlns="http://www.w3.org/2000/svg" xmlns:xlink="http://www.w3.org/1999/xlink" width="64" height="64" version="1"><defs><linearGradient id="a"><stop offset="0"/><stop offset="1" stop-opacity="0"/></linearGradient><linearGradient xlink:href="#a" id="b" x1="31.637" y1="43.058" x2="56" y2="43.058" gradientUnits="userSpaceOnUse"/></defs><g fill="#8e8e8e"><path d="M58 40v2H6v-2zM58 46v2H6v-2zM58 52v2H6v-2zM58 22v2H6v-2zM58 28v2H6v-2zM58 34v2H6v-2zM58 16v2H6v-2zM58 10v2H6v-2z"/><path d="M24 58h-2V6h2zM18 58h-2V6h2zM12 58h-2V6h2zM42 58h-2V6h2zM36 58h-2V6h2zM30 58h-2V6h2zM48 58h-2V6h2zM54 58h-2V6h2z"/></g><rect width="48" height="48" x="-56" y="-56" rx="2.5" ry="2.5" transform="matrix(0 -1 -1 0 0 0)" fill="#4d4d4d"/><g fill="#0ff"><path opacity=".5" d="M14 23h12v2H14zM28 23h6v2h-6zM36 23h14v2H36zM14 31h16v2H14zM32 31h16v2H32zM14 39h6v2h-6zM22 39h6v2h-6zM30 39h12v2H30z"/></g><path d="M56 30.115A41.492 41.492 0 0 1 31.637 56H53.5c1.385 0 2.5-1.115 2.5-2.5V30.115z" fill="url(#b)" opacity=".25"/></svg>

<svg width="64" height="64" version="1" xmlns="http://www.w3.org/2000/svg" xmlns:xlink="http://www.w3.org/1999/xlink">
 <g fill="#8e8e8e">
  <path d="M58 40v2H6v-2zM58 46v2H6v-2zM58 52v2H6v-2zM58 22v2H6v-2zM58 28v2H6v-2zM58 34v2H6v-2zM58 16v2H6v-2zM58 10v2H6v-2z"/>
  <path d="M24 58h-2V6h2zM18 58h-2V6h2zM12 58h-2V6h2zM42 58h-2V6h2zM36 58h-2V6h2zM30 58h-2V6h2zM48 58h-2V6h2zM54 58h-2V6h2z"/>
 </g>
 <rect transform="matrix(0 -1 -1 0 0 0)" x="-56" y="-56" width="48" height="48" rx="2.5" ry="2.5" fill="#4d4d4d"/>
 <g fill="#0ff">
  <path d="m14 23h12v2h-12zm14 0h6v2h-6zm8 0h14v2h-14zm-22 8h16v2h-16zm18 0h16v2h-16zm-18 8h6v2h-6zm8 0h6v2h-6zm8 0h12v2h-12z" opacity=".5"/>
 </g>
</svg>
